svg/maui.svg

<svg viewBox="0 0 20 20" xmlns="http://www.w3.org/2000/svg">
<rect width="100%" height="100%" fill="#2D4C91"/>
<path d="M0 20V0L20 20H0Z" fill="#425D9C"/>
<path d="M8.12371 5.00349V6.77678C8.12934 6.79827 8.13361 6.82011 8.13651 6.84216V9.15424C8.13775 9.28858 8.14501 9.41923 8.15215 9.54798C8.15976 9.68495 8.16724 9.81976 8.16724 9.95458V10.054C8.161 10.0539 8.15489 10.0522 8.1495 10.049C8.14411 10.0458 8.13963 10.0412 8.13651 10.0357C7.86509 9.59451 7.59281 9.15424 7.31968 8.71484L5.04585 5.07149C5.03361 5.04763 5.01458 5.02811 4.99127 5.0155C4.96796 5.0029 4.94146 4.9978 4.91526 5.00087H4.11891V10.9563H4.80515V6.55969C4.80515 6.44592 4.79811 6.3328 4.79107 6.21968C4.78403 6.10656 4.77699 5.99344 4.77699 5.87967C4.77577 5.85964 4.77577 5.83955 4.77699 5.81951C4.78374 5.8333 4.79098 5.84356 4.79698 5.85206C4.80464 5.8629 4.81028 5.87087 4.81028 5.87967C4.82562 5.91031 4.84059 5.94135 4.8556 5.97245C4.89566 6.0555 4.93596 6.13905 4.9844 6.21707L7.9291 10.8935C7.93907 10.9136 7.95456 10.9302 7.97367 10.9414C7.99279 10.9525 8.01468 10.9577 8.03665 10.9563H8.80483V5.00349H8.12371Z" fill="#FEFEFE"/>
<path d="M10.3233 5.01133V9.03393L10.3258 9.11501V10.972H13.4267V10.3129H11.03V9.80811C11.0288 9.79332 11.0288 9.77844 11.03 9.76365V8.24929H13.1195V7.61634H11.03V5.63382H13.2731V5.01133H10.3233Z" fill="#FEFEFE"/>
<path d="M2.88107 10.7698C2.90166 10.7097 2.90986 10.6458 2.90518 10.5823C2.90986 10.5187 2.90166 10.4549 2.88107 10.3947C2.86048 10.3346 2.82795 10.2794 2.78553 10.2327C2.7431 10.186 2.69169 10.1487 2.63451 10.1232C2.57733 10.0977 2.51562 10.0846 2.45323 10.0846C2.39084 10.0846 2.32913 10.0977 2.27195 10.1232C2.21477 10.1487 2.16335 10.186 2.12093 10.2327C2.0785 10.2794 2.04598 10.3346 2.02539 10.3947C2.0048 10.4549 1.99659 10.5187 2.00128 10.5823C1.99659 10.6458 2.0048 10.7097 2.02539 10.7698C2.04598 10.83 2.0785 10.8852 2.12093 10.9319C2.16335 10.9786 2.21477 11.0159 2.27195 11.0414C2.32913 11.0668 2.39084 11.08 2.45323 11.08C2.51562 11.08 2.57733 11.0668 2.63451 11.0414C2.69169 11.0159 2.7431 10.9786 2.78553 10.9319C2.82795 10.8852 2.86048 10.83 2.88107 10.7698Z" fill="#FEFEFE"/>
<path d="M13.9542 5.63382H15.6289V10.9537H16.3023V5.63382H18V5.00087H13.9542V5.63382Z" fill="#FEFEFE"/>
<path d="M6.26412 15.0721H5.95187V12.5005H6.33726L7.22338 14.0688H7.23745L8.12357 12.5005H8.50334V15.0721H8.19109V13.0104H8.17702L7.24589 14.6311H7.20932L6.27819 12.9994H6.26412V15.0721Z" fill="#FEFEFE"/>
<path fill-rule="evenodd" clip-rule="evenodd" d="M9.95208 12.5005H10.3515L11.3192 15.0363V15.0721H10.9704L10.7229 14.3996H9.57512L9.32757 15.0721H8.98719V15.0363L9.95208 12.5005ZM10.1434 12.8561L9.68202 14.1129H10.6188L10.1574 12.8561H10.1434Z" fill="#FEFEFE"/>
<path d="M13.6991 14.1653C13.6991 14.7551 13.3222 15.1052 12.6948 15.1052C12.0788 15.1052 11.6962 14.7579 11.6962 14.1653V12.5005H12.0225V14.157C12.0225 14.5539 12.2363 14.8103 12.6948 14.8103C13.1534 14.8103 13.37 14.5539 13.37 14.157V12.5005H13.6991V14.1653Z" fill="#FEFEFE"/>
<path d="M14.7428 15.0721H14.4136V12.5005H14.7428V15.0721Z" fill="#FEFEFE"/>
</svg>

<svg xmlns="http://www.w3.org/2000/svg" viewBox="0 0 20 20">
  <rect width="100%" height="100%" fill="#2D4C91"/>
  <path fill="#425D9C" d="M0 20V0l20 20H0Z"/>
  <path fill="#FEFEFE" d="M8.12 5v1.78l.02.06v2.31l.01.4.02.4v.1a.04.04 0 0 1-.03-.01L7.32 8.7 5.05 5.07A.13.13 0 0 0 4.92 5h-.8v5.96h.69v-4.4a5.47 5.47 0 0 0-.03-.68.5.5 0 0 1 0-.06l.02.03.01.03.05.1.12.24 2.95 4.67c0 .02.02.04.04.05l.07.02h.76V5h-.68ZM10.32 5.01V10.97h3.1v-.66h-2.39V8.25h2.09v-.63h-2.09V5.63h2.24v-.62h-2.95ZM2.88 10.77a.47.47 0 0 0 .03-.19.47.47 0 0 0-.12-.35.45.45 0 0 0-.34-.15.44.44 0 0 0-.33.15.47.47 0 0 0-.12.35.47.47 0 0 0 .12.35.45.45 0 0 0 .33.15.45.45 0 0 0 .34-.15c.04-.04.07-.1.1-.16ZM13.95 5.63h1.68v5.32h.67V5.63H18V5h-4.05v.63ZM6.26 15.07h-.3V12.5h.38l.88 1.57h.02l.88-1.57h.38v2.57h-.3v-2.06h-.02l-.93 1.62H7.2L6.28 13h-.02v2.07Z"/>
  <path fill="#FEFEFE" fill-rule="evenodd" d="M9.95 12.5h.4l.97 2.54v.03h-.35l-.25-.67H9.58l-.25.67h-.34v-.03l.96-2.54Zm.2.36-.47 1.25h.94l-.46-1.25h-.02Z" clip-rule="evenodd"/>
  <path fill="#FEFEFE" d="M13.7 14.17c0 .59-.38.94-1 .94s-1-.35-1-.94V12.5h.32v1.66c0 .4.22.65.67.65.46 0 .68-.26.68-.65V12.5h.33v1.67ZM14.74 15.07h-.33V12.5h.33v2.57Z"/>
</svg>
